X: 33072
T: Primrose Lasses, The
R: reel
M: 4/4
K: Gmajor
B3A G3E|DEGA BAA2|dBAB GAGE|DFGA BGG2|
B3A G3E|DEGA BAA2|dcBA GFED|DFGA BGG2:|
Bdgd edgd|Bdgd eAA2|Bdgd edgd|BdAc BGG2|
Bdgd edgd|Bdgd eAA2|Bdef gage|dBAc BGG2:|

